X:1
T: Wolfgang Figulus ~1525 - 1589
T:Meine Seele erhebt den Herren
%%score [ 1 2 3 4 ]
L:1/8
Q:1/4=280
M:4/4
K:C
V:1 treble nm="Discantus"
V:2 treble nm="Altus"
V:3 treble nm="Tenor"
V:4 treble nm="Bassus"
V:1
"^;""^C""^Q" x2"^U" ||[K:F] F16 | G16 | A16 |"A" x16 | x12 x4 |[M:4/2] z16 | A16 | G8 A8 | B16 | %10
w: |Mei-|ne|||||er-|hebt *||
 A8 A8 | G8 G8 | A16 | z16 | z4 A4 G4 x4- | x4 B6 A2 x4- | x4 G4 A8 | z16 | z16 | A16 | F16 | G16 | %22
w: den HER|* REN|||und mein *|Geist * frew-|et sich|||Got-|tes|mei-|
 A16 | G16 | F4 A8 G2 F2 | E4 F8 E4 | x16- | x16 | x16 || F12 G4 | A8 G4 A4 | B8 A4 x4- | %32
w: nes|Hey-|||lands|||Denn er|hat gros- se|ding an mir|
 x2 A2 A8 G4 | A8 z8 | z16 | z16 | z16 | c8 c4 B4 | A4 B4 A4 G4 | A4 c4 A4 x4- | %40
w: * * ge-|than,||||Ein Kin- de-|lein so zart/ *|der da mech- *|
 x2 B2 A2 G2 F4 x4- | x2 A2 A8 G4 | A4 c6 B2 A2 G2 | A4 G4 F4 E4 | D2 C2 F8 E4 | F16 | G8"^Ù" x8 | %47
w: |* * tig|ist und * * des|Na- me hei *|||lig|
 x16 | x8 z4 x4- | x4 A4 A4 A4 | F8 z4 x4- | x4 A4 B4 c4 | B2 G2 B4 A6 GF | E4 F8 E4 | x16- | x16 | %56
w: |der|da mech- tig|ist und|des Na- me|hei * * * * *|* * lig|ist.||
 x16 || F16 | G8 A4 A4 | B8 G4 x4- | x2 B2 A2 G2 A4 x4- | x4 A4 G8 | F4 A4 G8 | z4 A4 F4 x4- | %64
w: |Er|ü- bet ge-|walt mit sei-|||* nem arm/|mit * sei-|
 x2 A2 G2 F2 E4 x4- | x2 G2 F8 E4 | F6 E2 F2 G2 x4- | x4 G4 A4 F4 | E4 F4 G8 | z4 F4 E4 F4 | %70
w: ||* * nem * arm,|mit sei- *|* nem arm,|[mit sei- *|
 G8 F8 | z4 c8 c4 | c6 A2 A4 x4- | x4 B4 c4 A4 | G4 c4 c4 =B4 | c4 A4 G8 | z4 c4 c6 B2 | %77
w: nem arm,]|und zer-|strew- et die hof-|fer- tig sind|in * ih- res|her- zen sinn/|in ih- res|
 A4 G4 A4 B4 | G4 F4 G4 x4- | x2 G2 F8 E4 | F6 E2 F2 G2 x4- | x4 G4 A4 F4 | E4 F4 C4 E4 | %83
w: her- zen * sinn,||||in ih- res|her- * * *|
 D4 F8 E4 | x16 || z8 F8 | G4 G4 A4 x4- | x4 G4 A4 x4- | x2 F2 F8 E4 | F4 A4 G8 | F8 z8 | z8 F8 | %92
w: * * zen||die|hung- ri- gen fül-|let er mit|* gü- *||tern|die|
 G4 G4 A8 | B12 A4 | F4 A4 G8 | F4 D4 E8 | F16 | F4 F6 E2 E4 | F16 | z16 | z4 E4 E4 C4 | D4 E4 D8 | %102
w: hung- ri- gen|fül- let|er- mit *|* * gü-|tern,|mit gü- * *|tern||und lest *|die * rei-|
 C6 D2 E4 C4 | D4 F8 E4 | F16 | z4 F4 F4 E4 | F16 | G8 x8- | x8 z8 | z4 A4 F4 G4 | A4 F8 x4- | %111
w: |* * chen|leer/|und lest die|rei-|chen leer,||[und lest die|rei- * *|
 x2 A2 A8 G4 | x16- | x16 | x16 |] z16 | z16 | z16 | z16 | z16 | z16 | c8 x8- | x4 B4 c8 | %123
w: * * chen|leer|||||||||Wie er|ge- redt|
 G4 B4 c4 x4- | x2 A2 A8 G4 | A6 G2 F4 D4 | E4 F8 E4 | F16 | z16 | z16 | z8 z4 x4- | x4 c4 A4 A4 | %132
w: hat un- sern Ve-||||tern|||A-|bra- ham und|
 d12 c4 | B6 A2 G4 x4- | x2 G2 F8 E4 | F4 A4 A4 F4 | G4 A4 G8 | F6 ED C4 D4 | E4 F8 E4 | x16- | %140
w: sei- nem|sa- men e- *|wig- lich und|sei- nem sa- men|e- wig- lich||e- * wig-|lich.|
 x16 | x12 x4 || F16 | G8 A8 | A16 | z16 | A16 | G4 A4 B8 | A4 A8 G4 | A8 z8 | z16 | A8 A8 | %152
w: ||Lob|und *|preis||sey|Gott dem Va-|ter und dem|Son/||und dem|
 F6 G2 A2 B2 x4- | x4 B4 A4 x4- | x2 F2 F8 E4 | F16 | z16 | z16 | z16 | F12 G4 | A8 G4 A4 | %161
w: hei- * * * *||* * gen|Geist.||||Wie es|war von *|
 B8 A4 c4 | c4 B4 A4 G4 | A8 A4 A4 | G12 A4 | B16 | A8 A8 | A8 A8 | F16 | G16 | A6 G2 F4 E2 D2 | %171
w: an- fang *|itzt * und *|im- mer- dar|von e-|wig-|keit zu|e- wig-|keit|A-||
 E4 F8 E4 | x16- | x16 | x16 |] %175
w: men, * *||||
V:2
"^;""^C""^Q" x2"^ã" ||[K:F] C12 D4 | E4 F8 E4 | F12 F4 | F4 F4 F6 E2 | D4 C4 D4 A,4 | %6
w: |Mei- *|* * ne|Seel er-|hebt den HER *||
[M:4/2] G,4 A,4 B,8 | A,8 z4 x4- | x4 C4 C4 C4 | D16 | C12 x4- | x4 E2 D2 E8 | F12 E4 | D4 C4 B,8 | %14
w: |REN, Mei|ne Seel er|hebt|den Her||||
 A,4 F4 E4 F4 | C4 D6 C2 A,4 | B,4 B,4 A,8 | z16 | z16 | C8 C8 | D12 C4 | B,16 | A,6 G,2 F,4 x4- | %23
w: ren und mein Geist|frew- * * *|* et sich|||Got- tes|mei- *|nes|Hei * * *|
 x4 E2 D2 E8 | F16 | z8 C8 | A,8 A,4 A,4 | D16 | x16 || F12 E4 | D4 C4 B,4 A,4 | %31
w: |lands,|Got-|tes mei- nes|Hei-||Denn er|hat * gros- se|
 G,6 A,2 B,2 C2 x4- | x4 C4 B,4 B,4 | A,8 z8 | z16 | z4 D8 x4- | x4 C4 D4 D4 | C4 F4 E4 D4 | %38
w: ding * * * *|an mir ge-|than||an mir|ge- than hat|gros- se ding *|
 C4 D4 C4 B,4 | A,2 B,2 C2 D2 E4 C2 D2 | E4 D8 x4- | x2 F2 F8 E4 | F8 z4 x4- | x4 E4 D4 C4 | %44
w: an * mir *|ge * * * * * *|||than der|da mech- *|
 B,4 A,4 G,8 | F,4 F6 E2 x4- | x4 ^C4 D8 | D8 D8 | C16 | C16 | D8 C4 x4- | x4 E4 D4 C2 A,2 | %52
w: * * tig|ist, mech- * *|tig ist|und des|na-|me|hei- lig ist,||
 B,4 B,4 C8 | C16 | A,4 A,8 A,4 | B,8 B,8 | x16 || z16 | C16 | D8 E4 E4 | F6 E2 F4 x4- | %61
w: |und|des na- me|hei- lig-|||Er|ü- bet ge-|walt mit sei *|
 x2 F2 F8 E4 | F8 z4 G4 | C4 F8 x4- | x4 E6 D2 x4- | x4 B,4 C6 B,2 | A,2 G,2 A,12 | %67
w: * * nem|arm. mit|sei- * *|nem, * mit|sei- * *||
 F,4 G,4 F,2 G,2 A,2 F,2 | G,4 A,4 G,8 | F,8 z8 | z8 z4 x4- | x4 E4 F8 | C4 F8 E4 | F4 D4 C4 F4 | %74
w: |* * nem|arm|und|zer- strew-|et die hof-|fer- tig sind in|
 E4 C4 D4 D4 | C8 z4 x4- | x4 F4 E4 C4 | D4 E4 C4 B,4 | C8 z4 x4- | x4 B,4 C4 C4 | C4 C4 A,6 G,2 | %81
w: ih- res her- zen|sinn, [und|zer- strew- et|die hof- fer- tig|sind] Die|hof- fer- tig|sind in ih- *|
 A,2 B,2 C8 F,4 | C8 z4 C4 | A,4 B,4 C4 C4 | x16 || C8 D4 D4 | E8 x8- | x4 E4 C4 E4 | D8 C6 B,2 | %89
w: res * her- zen|sinn, *|||die hung- ri-|gen fül-|let er mit|güt- * *|
 A,4 D4 B,4 C4 | F,2 G,2 A,2 B,2 C8 | z4 C4 A,4 B,4 | G,8 F,4 F,4 | B,2 C2 D2 E2 F4 C4 | %94
w: |tern * * * *|mit güt *|* tern, mit|güt * * * * *|
 D8 E4 x4- | x2 A,2 B,4 C8 | F,16 | z4 C4 D4 C4 | A,8 z4 x4- | x4 C8 =B,4 | C16 | z4 A,4 A,4 G,4 | %102
w: ||tern,||* und|les- *|set,|und lest die|
 A,6 B,2 C4 x4- | x4 B,4 C8 | z4 C4 C4 C4 | D4 C4 D4 C4 | A,4 D8 C4 | B,4 B,4 A,4 x4- | %108
w: Rei- * chen leer,||und lest die|Rei- * * *|* * chen|leer, die Rei- *|
 x4 E2 D2 C2 D2 E4 | C8 z4 C4 | D4 D4 D4 B,2 C2 | D2 E2 F4 D4 E4 | F4 F4 F4 E4 | D8 D8 | x16 |] %115
w: * * * * chen|leer [und|lest die Rei- * *|* * * * chen|leer] und lest die|Rei- chen||
 F8 x8- | x4 E4 F8 | C8 F6 E2 | F4 G6 F2 x4- | x4 E4 x8- | x4 E4 D8 | C8 D2 E2 x4- | %122
w: Wie er|ge- redt|hat un- *|sern Ve * *||||
 x4 E2 D2 C2 D2 E2 C2 | D8 C4 x4- | x4 E4 F4 G4 | C4 A,6 G,2 F,4 | G,4 A,4 G,8 | F,8 z4 x4- | %128
w: |* tern, un-|sern Ve- *|||tern A-|
 x4 F4 D4 D4 | G12 F4 | E4 D4 C8 | F12 E4 | D6 E2 F2 D2 x4- | x2 E2 D6 C2 x4- | x4 B,4 C8 | %135
w: bra- ham und|sei- nem|sa- * men|e- *|||wig- lich,|
 A,6 B,2 C4 x4- | x2 C2 F8 E4 | D4 A,4 C4 x4- | x4 C4 C8 | A,4 B,4 C8 | D12 C2 B,2 | C4 C4 x8 || %142
w: ||||e * *||* wig-|
 F12 E2 D2 | E4 E4 x8- | x8 z8 | z16 | F12 E2 D2 | E4 F4 G8 | C4 D8 E4 | F8 z8 | z16 | C12 C4 | %152
w: Lob * *|* und Preis|||sey * *|Gott dem Va-|ter und dem|Son||und dem|
 D6 E2 F4 E4 | C6 D2 E4 x4- | x4 B,4 C4 C4 | C16 | z8 G8 | F4 F8 E4 | D6 E2 F4 E4 | C16 | %160
w: hei * * gen|Geist * * *|||Wie|es war *|von * an- *|fang,|
 z4 C4 D4 A,4 | D8 z4 F4 | E4 D4 C4 B,4 | A,8 z4 x4- | x4 C4 C4 C4 | D8 D6 C2 | D2 E2 F8 E2 D2 | %167
w: von an- *|fang itzt|und im- * mer-|dar und|von e- wig-|keit zu *|e * * * *|
 C4 D8 ^C4 | D12"^(  )" C4 | B,16 | A,16 | z4 C4 C4 C4 | A,4 F8 E4 | D4 C4 D8 | x16 |] %175
w: * * wig-|keit *|A-|men,|zu e- wig-|keit A- *|||
V:3
"^;""^C""^Q" x2"^U""^U" ||[K:F][K:treble-8] A16 | c16 | c8 c4 c4 | d4 d4 c6 B2 | A6 G2 F4 E4 | %6
w: |Mei-||ne Seel er-|hebt den Her- *||
[M:4/2][K:treble-8] D4 F8 E4 | F4 A6 G2 x4- | x4 E4"^Ù" x8- | x16 | x8 z8 | z16 | z8 z4 C4 | %13
w: ||* ren,|||||
 D4 F8 E4 | F8 z8 | z16 | z8 z4 A4 | G4 A8 x4- | x4 A8 G4 | A6 G2 F4 E4 | D6 C2 D2 E2 x4- | %21
w: |ren]||und|mein Geist frew|et sich|Got * * *||
 x4 E2 D2 E4 D2 E2 | F6 G2 A4 F4 | G16 | A16 | G16 | x16- | x16 | x16 || z16 | z16 | z16 | z16 | %33
w: |* tes mei- nes|Hey-|||lands|||||||
 F12 G4 | A8 G4 A4 | B8 A4 x4- | x4 A8 G4 | A8 z8 | z16 | A16 | A4 A8 G4 | A8 B8 | A8 A8 | z16 | %44
w: Denn er|hat gros- se|ding * an|mir ge-|than/||der|da mech- *|tig *|\_\_ ist,||
 z16 | A12 A4 | G8 A8 | B16 | A16 | A16 | A16 | A8 F8 | G8 A8 | G8 G8 | x16- | x16 | x16 || z16 | %58
w: |[der da|mech- *|tig|ist]|und|des|na- me|hei- *|* lig|ist.||||
 z16 | z16 | z16 | z16 | F8 G8 | A4 A4 B8 | G4 c6 B2 A2 G2 | F8 G8 | F8 x8- | x4 c4 x8- | %68
w: ||||Er ü-|bet ge- walt|mit sei- * * *|* nem|arm und|zur- strew-|
 x4 A4 B4 x4- | x4 B4 c4 A4 | G4 c4 A4 B4 | G4 G4 F8 | z16 | z16 | z8 G8 | A4 F4 G4 G4 | A8 z4 A4 | %77
w: * et die|hof- fer- tig|sind in ih- res|her- zen sinn|||in|ih- res her- zen|sinn, *|
 F4 G4 F8 | G4 A4 G4 E4 | F8 G8 | F16 | z8 A8 | G4 F4 G4 x4- | x4 F4 G8 | x16 || z16 | z16 | z16 | %88
w: ||||in|ih- res her *|* zen|||||
 z16 | F8 G4 G4 | A4 A8 G4 | A4 G6 F2 x4- | x4 E4 F4 A4 | G8 F8 | z16 | F8 G4 G4 | A4 B8 A4 | %97
w: |Die hung- ri-|gen fül- let|er mit * *|* güt- *|* tern/||die hung- ri-|gen fül- let|
 F4 A4 G8 | F6 E2 F2 G2 x4- | x2 G2 G8 F4 | G8 z4 F4 | F4 E4 F4 D4 | E4 F4 E8 | F8 G8 | %104
w: er * mit|güt * * * *||tern/ und|lest * * die|rei- * chen|leer, *|
 F4 A4 A4 F4 | G4 A4 G8 | F6 E2 D4 x4- | x4 E4 F8 | z4 A4 F4 G4 | A12 G4 | F4 B4 A4 G4 | A8 B8 | %112
w: ||||und lest *|die *|rei * * chen|leer *|
 x16- | x16 | x16 |] z16 | z16 | z16 | z16 | z8 x8- | x8 G8 | A8 A4 x4- | x4 G4 A8 | B8 A4 x4- | %124
w: |||||||Wie|er|* ge- redt|hat un-|sern Ve- *|
 x4 c4 B8 | A12 B4 | c8 z4 x4- | x4 c4 A4 A4 | d12 c4 | B4 A4 G8 | c12 B4 | A4 G4 F8 | B12 A4 | %133
w: ||tern A-|bra- ham und|sei- *|* nem sa-|* men|e- wig- lich,||
 G4 F4 E8 | F8 G8 | F16 | z16 | z4 A4 A4 F4 | G4 A4 G4 G4 | x16- | x16 | x12 x4 || z16 | z16 | %144
w: ||\_\_\_\_||und sei- nem|sa- men e- wig-|lich.|||||
 F16 | G8 A8 | A16 | z16 | z16 | c8 c4 B4 | A4 B4 A4 G4 | A6 G2 F4 E4 | D8 C6 D2 | E2 C2 F8 E4 | %154
w: Lob|und *|preis|||sey Gott dem|Va- ter und dem|Son, * * *|* und *|dem * heil- *|
 F8 G8 | F8 z8 | F8 G8 | A4 A4 G6 A2 | B4 A8 G4 | A12 G4 | F4 E4 D4 x4- | x4 E4 F8 | z16 | %163
w: gen *|Geist|wie es|war von an- *|fang jetzt und|im- *||mer dar||
 F8 F4 x4- | x4 E2 D2 E4 E4 | F8 F8 | F6 E2 F2 G2 x4- | x4 G2 F2 E4 E4 | D6"^(  )" C2 D2 E2 x4- | %169
w: und von e|* * * wig-|keit zu|e- * * * *|* * * wig-|keit A * * *|
 x4 E2 D2 E8 | F4 A4 A4 F4 | G4 A4 G8 | x16- | x16 | x16 |] %175
w: men, * *|zu e- wig- keit|A- * *|men.|||
V:4
"^Q" x2"^U" ||[K:F][K:bass] F,16 | C,16 | F,16 | D,8 x8- | x4 E,4 D,4 C,4 |[M:4/2] B,,4 A,,4 G,,8 | %7
w: |Mei-|ne|Seel|er- hebt|||
 F,,8 F,,8 | C,8 F,,8 | B,,16 | F,,16 | z4 C,4 C,4 C,4 | F,6 E,2 D,4 C,4 | B,,4 A,,4 G,,8 | %14
w: * den|Her- *||ren|er- hebt den|Her * * *||
 F,,8 z8 | z16 | z8 z4 F,4 | E,4 F,4 C,4 x4- | x2 C,2 A,,4 B,,4 B,,4 | A,,16 | B,,12 A,,4 | G,,16 | %22
w: ren,||und|mein Geist frew *|* * * et|sich,|frew- *||
 F,,16 | C,16 | z4 F,8 F,4 | C,12 C,4 | D,12 C,4 | B,,16 | x16 || z16 | z16 | z16 | z16 | %33
w: et|sich|Got- tes|mei- nes|Hey- *|||||||
 F,12 E,4 | D,4 C,4 B,,4 A,,4 | G,,2 A,,2 B,,2 C,2 x8- | x4 C,4 B,,4 B,,4 | A,,8 z8 | z16 | A,,16 | %40
w: Denn er|hat gros- se ding|an * * * *|* mir ge-|than||der|
 A,,4 D,8 E,4 | F,8 G,8 | F,16 | z16 | z16 | D,12 D,4 | E,8 D,8 | B,,16 | F,12 F,4 | F,16 | %50
w: da mech- *|tig *|ist,|||der da|mech- *||tig ist|und|
 D,8 F,6 E,2 | D,4 C,4 B,,4 A,,4 | G,,8 F,,8 | C,8 C,8 | D,12 C,4 | B,,8 B,,8 | x16 || z16 | z16 | %59
w: des na- *|* me hei- lig|ist, und|des na-|* me|hei- lig||||
 z16 | z16 | z8 C,8 | D,8 E,4 E,4 | F,8 D,4 x4- | x2 F,2 E,2 D,2 C,8 | D,8 C,8 | F,8 z4 x4- | %67
w: ||Er|ü- bet ge-|walt mit sei||* nem|arm/ und|
 x4 E,4 F,8 | C,4 F,8 E,4 | F,4 D,4 C,4 F,4 | E,4 C,4 D,4 D,4 | C,8 z8 | z16 | z16 | z16 | %75
w: zer- strew-|et die hof-|fer- tig sind in|ih- res her- zen|sinn.||||
 z4 F,8 E,4 | F,8 C,4 x4- | x4 E,4 F,4 D,4 | C,4 F,4 E,4 C,4 | D,4 D,4 C,8 | F,8 z4 x4- | %81
w: und zer-|strew- et die|hof- fer- tig|||* die|
 x4 E,4 F,4 D,4 | C,4 F,4 E,4 C,4 | D,8 C,8 | x16 || z16 | z16 | z16 | z8 C,8 | D,4 D,4 _E,8 | %90
w: hof- fer- tig|sind in ih- res|her- zen|||||Die|hung- ri- gen|
 F,12 E,4 | C,4 E,4 D,8 | E,8 z8 | z16 | z8 C,8 | D,8 C,8 | z4 B,,6 C,2 x4- | x4 A,,4 B,,4 C,4 | %98
w: fül- let|er mit güt-|tern,||mit-|güt- tern,|mit * güt||
 D,6 C,2 D,2 E,2 x4- | x4 E,4 D,8 | C,4 C,4 C,4 A,,4 | B,,4 C,4 B,,8 | A,,16 | D,8 C,8 | %104
w: |tern und|lest die Rei *||chen|leer *|
 F,,8 z4 F,,4 | B,,4 A,,4 B,,4 C,4 | D,6 C,2 B,,4 A,,4 | G,,8 F,,8 | z4 F,4 F,4 E,4 | F,12 E,4 | %110
w: ||||und lest die|Rei- chen|
 D,6 E,2 F,4 x4- | x4 F,4 G,4 G,4 | D,4 F,4 F,4 C,4 | B,,8 B,,8 | x16 |] z16 | z16 | F,8 x8- | %118
w: leer * * *|* * und|lest die Rei *|* chen||||Wie er|
 x4 E,4 F,8 | C,8 F,6 E,2 | D,4 C,4 B,,8 | A,,16 | z16 | z8 z4 x4- | x4 C,4 D,4 E,4 | F,6 E,2 D,8 | %126
w: ge- redt|hat un *|* sern Ve-|tern,|||||
 C,16 | z4 F,8 F,4 | D,4 D,4 x8- | x4 F,4 E,4 D,4 | C,8 x8- | x4 E,4 D,4 C,4 | B,,12 F,,4 | %133
w: |A- bra-|ham und sei-|* * nem|sa- men|* e- *||
 B,,8 C,8 | D,8 C,8 | F,,8 z4 B,,4 | B,,4 A,,4 B,,4 C,4 | D,6 C,B,, A,,4 B,,4 | G,,4 F,,4 C,8 | %139
w: |* wig-|lich, und|sei- nem sa- men|e- * * * *||
 D,4 B,,8 A,,4 | B,,4 B,,4 x8- | x12 x4 || z16 | z16 | F,12 E,2 D,2 | E,4 E,4 x8- | x8 z8 | z16 | %148
w: |* wig- lich.||||Lob * *|* und preis|||
 z16 | F,8 E,4 D,4 | C,4 D,4 C,4 B,,4 | A,,8 A,,8 | B,,8 x8- | x4 B,,4 C,8 | D,8 C,8 | z8 x8- | %156
w: |sey Got dem|Va- ter und dem|Son, und|dem heil-|* gen|* Geist|wie|
 x4 E,2 D,2 E,4 E,4 | F,8 C,8 | D,4 D,8 E,4 | F,12 E,4 | D,4 C,4 B,,4 A,,4 | G,,8 F,,8 | z16 | %163
w: * * * es|war von|an- fang itzt|und *|* * im *|mer- dar||
 F,,8 F,,8 | C,8 C,8 | B,,12 B,,4 | D,8 D,8 | A,,16 | B,,12 A,,4 | G,,16 | F,,16 | C,16 | %172
w: und von|e- wig-|keit zu|e- wig-|keit|A- *||men,|A-|
 D,12 C,4 | B,,4 A,,4 B,,8 | x16 |] %175
w: |||

